%
:16435 (NINGBO FC01N12996J) 

(TOTAL MACHINE TIME: 1.870) 
(MATERIAL: 007 X 000 X A100) 
(REV _ ) 
(GMM) 

(PROGRAM REV: 0)

/ G00 T202 
/ G50 Z0.005 
/ Z1. 
/ M30 

(35 DEG OD .015 TNR) 
(VCGT-110304FN-ALU) 

T202 
G97 S1000 M03 
G00 X0.8 Z0.06 
G01 Z-0.01 F0.01 
X0.65 
X0.48 F0.002 
Z0. 
X-0.025 
Z0.06 F0.01 
G00 X0.5331 
Z0.0324 
G01 X0.618 Z-0.01 F0.002 
G03 X0.638 Z-0.02 R0.01 
G01 X0.6379 Z-0.0212 
X0.622 Z-0.0858 
Z-0.194 
X0.5908 Z-0.2095 
X0.6785 Z-0.2535 
X0.8 Z-0.2663 F0.005 
G00 Z3.5 
/ G53 X0. Z0. 
M01 


(3/16 ENDMILL 2FL 3/8S C33806) 

T1010 
G97 S1000 M03 
G00 X0. Z0.1 
G01 Z-0.24 F0.002 
G00 Z3.5 
/ G53 X0. Z0. 
M01 

(ACCUGRIND ID TOOL ID-120 .005 TNR) 

T404 
G97 S1000 M03 
G00 X0.124 Z0.06 
G01 Z-0.01 F0.03 
G01 X0.244 F0.002 
X0.354 
Z0.03 
G00 X0.2864 Z0.0112 
G01 X0.244 Z-0.01 
G02 X0.228 Z-0.018 R0.008 
G01 X0.2281 Z-0.019 
X0.244 Z-0.0836 
Z-0.1841 
X0.274 Z-0.1991 
X0.22 
G00 Z3.5 
/ G53 X0. Z0. 
M01 


(.050 CANTILEVER CAVITY TOOL) 
(CC 01001) 

T606 
G97 S1000 M03 
G00 X0.272 
Z0.06 
G01 Z-0.109 F0.002 
Z0.03 F0.015 
T626 
Z-0.063 F0.002 (R.LIP) 
X0.288 
Z-0.109 
T606 
X0.272 
Z0.06 F0.015 
G00 X0.478 
G01 Z-0.109 F0.002 
Z0.03 F0.015 
T636 
Z-0.063 F0.002 (R.LIP) 
X0.494 
Z-0.109 
T606 
X0.478 
Z0.06 F0.015 
G00 Z3.5 
/ G53 X0. Z0. 
M01 

(PART OFF TOOL .062 X 45 DEG) 
(TB # CN004740A) 

T808 
G97 S500 M03 
G00 X0.7 
Z0.06 
G01 Z-0.25 F0.1 
X0.635 F0.005 
X0.225 F0.002 
G00 G50 Z0.01 
X0.7 
Z3.5 
/ G53 X0. Z0. 
M01 
/ M30 
M99 
%
REV 0 DC 10-3-19:
NO CHANGES.
