%
O16162 (AWC HUNGARY)

(This program has several open comments)
(open comment lines: 19 178)
(and has leading spaces on most lines)
 
(TOTAL MACHINE TIME: 4.566)
(MATERIAL:)
(REV _ )
(GMM)
 
 /G00 T202
 /G50 Z.005
 /Z1.0
 /M30
 
(35 DEG  OD PROFILE TOOL LH .015 TNR)
(VCGT-110304FN-ALU

 T202
 G97 S1000 M3
 G00 Z0.06
 X1.6498
 G01 Z0.0 F0.002
 X0.7069
 Z0.06
 G00 X1.343
 Z0.0379
 G01 X1.4279 Z-0.0046
 X1.4579 Z-0.0196
 G03 X1.467 Z-0.0306 R0.0156
 G01 Z-0.0846
 Z-0.2046
 Z-0.3186
 Z-0.4386
 Z-0.4991
 X1.4279 Z-0.5186
 Z-0.6436
 X1.625 F0.005
 G00 Z3.5
 /G53 X0.0 Z0.0
 M01
 
(.062 SANDVIK  EXTERNAL GROOVE TOOL)
( INSERT TLG-3062R 1125)

 T1515
 G97 S500 M3
 G00 Z0.06
 X1.49
 Z-0.153
 G01 X1.386 F0.005
 G00 X1.49
 Z-0.167
 G01 X1.386
 G00 X1.49
 Z-0.153
 Z-0.387
 G01 X1.386
 X1.49
 Z-0.401
 X1.386
 X1.49
 Z-0.387
 G00 X1.517
 Z-0.35
 G01 X1.467 F0.002
 Z-0.36
 G03 X1.427 Z-0.38 R0.02
 G01 X1.381
 G02 X1.361 Z-0.39 R0.01
 G01 Z-0.398
 X1.3614 Z-0.4
 X1.3814
 X1.517
 Z-0.438
 X1.467
 Z-0.428
 G02 X1.427 Z-0.408 R0.02
 G01 X1.381
 G03 X1.361 Z-0.398 R0.01
 G01 Z-0.39
 X1.3614 Z-0.388
 X1.3814
 X1.517
 G00 Z-0.116
 G01 X1.467
 Z-0.126
 G03 X1.427 Z-0.146 R0.02
 G01 X1.381
 G02 X1.361 Z-0.156 R0.01
 G01 Z-0.164
 X1.3614 Z-0.166
 X1.3814
 G00 X1.517
 Z-0.204
 G01 X1.467
 Z-0.194
 G02 X1.427 Z-0.174 R0.02
 G01 X1.381
 G03 X1.361 Z-0.164 R0.01
 G01 Z-0.156
 X1.3614 Z-0.154
 X1.3814
 G00 X1.517
 Z3.500
 /G53 X0.0 Z0.0
 M01
 
(.500 SHANK 35 DEG ID  BORE BAR .015 TNR)
(INSERT VCGT-110304FN-ALU)

 T404
 G97 S1000 M3
 G00 X0.975
 Z0.06
 G01 X0.975 Z-0.3866 F0.002
 X0.9841 Z-0.3936
 X1.2341 Z-0.5186
 X1.2483 Z-0.5257
 Z-0.617
 X0.75 F0.005
 G00 Z3.5
 /G53 X0.0 Z0.0
 M01
 
(45 DEG INTERNAL CUSTOM GROOVE TOOL .010 TNR)

 T606
 G97 S500 M3
 G00 X1.2495
 Z0.0606
 G01 X1.1895 Z0.0087 F0.002
 X1.171 Z-0.0073
 Z-0.0346
 X1.076 Z0.0129
 X0.9912 Z0.0554
 G00 X1.2731
 Z0.0538
 G01 X1.2131 Z0.0018
 X1.191 Z-0.0173
 Z-0.0646
 X1.056 Z0.0029
 X0.9712 Z0.0454
 G00 Z0.097
 X1.2968
 Z0.047
 G01 X1.2368 Z-0.005
 X1.211 Z-0.0273
 Z-0.0946
 X1.036 Z-0.0071
 X0.9512 Z0.0354
 X1.0219 Z0.0 F0.005
 X0.9101 Z-0.0558 F0.002
 X1.036 Z-0.1191 F0.005
 X1.211 Z-0.2066 F0.002
 X1.0219 Z-0.112 F.005
 X0.9101 Z-0.1678 F0.002
 X0.9936 Z-0.2098 F0.005
 X1.211 Z-0.3186  F.002 
 X1.0219 Z-0.224 F0.005
 X0.9101 Z-0.2798 F0.002
 X1.0036 Z-0.3303 F0.005
 X1.211 Z-0.434 F.002
 X1.0036 Z-0.3303 F.005
 X0.9936 Z-0.3353 F0.002
 X1.036 Z-0.3565 
 X1.211 Z-0.444
 Z-0.439
 X0.999 Z-0.333 F.005
 X1.026 Z-0.3465 F0.005
 X0.9384 Z-0.3911 F0.002
 G00 Z0.1
 /G53 X0.0 Z0.0
 M01
 
 (PART OFF TOOL .062 X 45 DEG TB # CN004740A
 
 T808
 G97 S500 M3
 G00 X1.625
 Z0.1
 G01 Z-0.552 F0.03
 X1.48 F0.025
 X1.2 F0.002
 G00 G50 Z.010
 X1.625
 Z0.1
 Z3.5
 /G53 X0.0 Z0.0
 M01
 /M30
 M99
%
TOOLING LIST
TOOL   2 : 35 DEG  OD PROFILE TOOL LH .015 TNR VCGT-110304FN-ALU
TOOL  15 : (.062 SANDVIK  EXTERNAL GROOVE TOOL)  ( INSERT TLG-3062R 1125)
TOOL   4 : (.500 SHANK 35 DEG ID  BORE BAR .015 TNR) (INSERT VCGT-110304FN-ALU)
TOOL   6 : 45 DEG INTERNAL CUSTOM  GROOVE TOOL.010 TNR
TOOL   8 : PART OFF TOOL .062 X 45 DEG TB # CN004740A
