%
O12969 (FM063785J)

(this program has some values with double-decimal points)
 
(TOTAL MACHINE TIME: 1.543)
(MATERIAL:1.34 X 000 X AWC400)
(REV _ )
(GMM)
 
 /G00 T202
 /G50 Z.005
 /Z1.0
 /M30
 
(35 DEG  OD .015 TNR)
(VCGT-110304FN-ALU)
 
 T202
 G97 S1800 M3
 G00 X1.4807 Z0.06
 G01 Z.0.0 F0.002
 X-0.1291
 Z0.06
 G00 X0.6197
 Z0.0389
 G01 X0.7015 Z-0.005
 X0.902 Z-0.1125
 Z-0.3801
 X0.8829 Z-0.3896
 X1.0029 Z-0.4421
 X1.4 Z-0.4535 F0.005
 G00 Z3.0.0
 /G53 X0.0 Z0.0
 M01
 
 
(5/16 ENDMILL 2FL C33814)
 
 T1010
 G97 S1800 M3 
 G00 X0.0.
 Z0.1
 G01 Z-0.44.0 F0.002
 G00 Z3.5
 /G53 X0.0 Z0.0
 M01
 
 
(ACCUGRIND ID TOOL ID-180 .005 TNR)
 
 T404
 G97 S1800 M3
 G00 X0.6746
 Z0.0423
 G01 X0.5928 Z-0.0016 F0.002
 X0.398 Z-0.106
 Z-0.3701
 X0.4208 Z-0.3815
 X0.31
 G00 Z3.0.0
 /G53 X0.0 Z0.0
 M01
 
 
(PART OFF TOOL .062 X 45 DEG)
(TB # CN004740A)
 
 T808
 G97 S500 M3
 G00 X1.
 Z0.06
 G01 Z-0.43.5 F0.1
 X0.925 F0.015
 X0.38 F0.002
 G00 G50 Z.010
 X1.1
 Z3.0
 /G53 X0.0 Z0.0
 M01
 /M30
 M99
%
(TOOLING LIST)
(TOOL   2 : (35 DEG  OD PROFILE TOOL  .015 TNR)  (VCGT-110304FN-ALU)
(TOOL   5 : 5/16 ENDMILL 2FL 3/8S C33814
(TOOL   4 : ACCUGRIND ID  TOOL  ID-180  .005 TNR
(TOOL   8 : PART OFF TOOL .062 X 45 DEG TB # CN004740A
