%
O7448 (SC HYDRO FMD10696)

(this program has)
(values that exceed 4 decimal places)
(leading spaces)
(extraneous % signs)
 
(TOTAL MACHINE TIME: 581)
(MATERIAL:015 X 007 X A001)
(REV _ )
(GMM)
 
 /G00 T202
 /G50 Z.005
 /Z1.0
 /M30
 
(35 DEG  OD PROFILE LH TOOL  .015 TNR)
(VCGT-110304FN-ALU)
 
 T202
 G97 S2000 M3
 G00 X1.5128 Z0.06
 G01 Z0.0 F0.003
 X0.6808
 Z0.06
 G00 X1.224 Z0.0379
 G01 X1.3089 Z-0.0046
 X1.324 Z-0.0121
 Z-0.0691
 X1.3089 Z-0.0766
 X1.3965 Z-0.12055
 X1.53 F0.005
 G00 Z3.5
 /G53 X0.0 Z0.0
 M01
 
 
(ARNO .375 SHANK 35 DEG ID.015 TNR)
(INSERT VCGT-110304FN-ALU)
 
 T404
 G97 S2000 M3
 G00 X1.18
 Z0.0379
 G01 X1.0951 Z-0.0046 F0.003
 X1.08 Z-0.01215
 Z-0.0691
 X1.0951 Z-0.0766
 X1.0327
 G00 Z3.5
 /G53 X0.0 Z0.0
 M01

 (DRILLS 6 HOLES ON PART FACE)
 
T1010 (#54 DRILL .055)
M05
G00X1.209
Z.500
G98
M154
G00C0
G04P1.
M14
M133P2500
Z.200
M98P10
M98P20L5
M155
M135
G00Z.5
G99
G40Z3.500
M01

 
 
(PART OFF TOOL .062 X 45 DEG)
(TB # CN004740A)
 
 T808
 G97 S2000 M3
 G00 X1.5
 Z0.1
 G01 X1.34 Z-0.11255 F0.03
 X1.06 F0.002
 G00 X1.5
 Z3.5
 G00 G50 Z.010
 /G53 X0.0 Z0.0
 M01
 /M30
%

%
O10 (SUB PROGRAM FOR HOLES)
G01Z.010F10.
Z-.010F5.00
G00Z.030
G01Z-.075
G00Z.200
M99
%

%
O20 (SUB PROGRAM TO INDEX PART)
G00H60.000
G04P1.
M14
M98P10
M15
M99
%
(TOOLING LIST)
(TOOL   2 : (35 DEG  OD PROFILE TOOL  .015 TNR)  (VCGT-110304FN-ALU))
(TOOL   4 : (ARNO S10H SVLCR 07-.375  35 DEG ID  .015 TNR)  (INSERT VCGT-110304FN-ALU) 
(TOOL   8 : PART OFF TOOL .062 X 45 DEG TB # CN004740A)
(TOOL   10:   #52  .052  DIA DRILL) 
