
%
:16140(SKOFLO FS032078)

(*this program has fucking everything wrong with it*)
 
(Material: 010 X 000 X A42)
(Rev _ )
(GMM)
 
 /G00 T202
 /G50 Z.005
 /Z1.0
 /M30
 
(35 DEG  OD TURN TOOL LH .015 TNR)
 (INSERT  VCGT-110304FN-ALU)
 
 T202
 G97 S2000 M3
 G00 1.027562
 Z0.06
 G01 Z0.0 F0.010 
 X.600
 X.300 F.002
 X-0.015 F.010 
 Z0.06
 G00 X0.61
 G01 Z-0.172
 X1.001 
 G00  Z0.06
 X0.5038
 G01 X0.5448 Z-0.0103
 X0.554 Z-0.022889
 Z-0.1184
 X0.5448 Z-0.1309
 Z-0.1729
 X0.61
 G00 Z3.5
 /G53 X0.0 Z0.0
 M01
 
(T-TOOL FACE PROFILE .060 WIDE .030 TNR)
  (INSERT TPI 432B
  
 T1010
 G97 S2000 M3
 G00 X0.399
 Z0.07
 G01 Z-0.03 F0.002
 Z-0.033
 G02 X0.403 Z-0.035 R0.002
 G01 Z-0.0038
 G00 Z0.07
 X0.407 
 G01 Z-0.03
 Z-0.033 
 G03 X0.403333333 Z-0.035 R0.002
 G01 Z-0.0038
 G00 Z0.07
 Z3.5
 /G53 X0.0 Z0.0
 M01
 
(5/16 ENDMILL 2FL 3/8S C33814)

 T505
 G97 S2000 M3
 G00 X0.0.0
 Z0.06
 G01 Z-0.14 F0.002
 G00 Z0.06
 Z3.5 
 /G53 X0.0 Z0.0
 M01 
 
(ACCUGRIND BORE  TOOL .187 SQ CARBIDE .005 TNR)

 T404
 G97 S2000 M3
 G00 X0.352
 Z0.06
 G01 Z-0.14 F0.002
 X0.322
 G00 Z0.06
 X0.4109
 Z0.0531
 G01 X0.3699 Z-0.0033
 X0.362 Z-0.0141
 Z-0.1059 
 X0.3699 Z-0.1167
 Z-0.1267.5 
 Z-0.14
 X0.352
 G00 Z3.5
 /G53 X0.0 Z0.0
 M01

X3.141592 (pi to 6 digits for regex testing)
X3.14159 (pi to 5 digits for regex testing)
 
(PART OFF TOOL .062 X 45 DEG TB # CN004740A)
(Gerard sucks at programming
 T808
 G97 S500 M3
 G00 X0.75
 Z0.1
 G01 Z-0.172 F0.025
 X0.562 
 X0.312 F0.002
 G00 G50 Z.010
 X1.
 3.5
 /G53 X0.0 Z0.0
 M01
 /M30
 M99
%
TOOLING LIST
Tool   2    : (35 DEG  OD TURN TOOL LH .015 TNR)  (INSERT  VCGT-110304FN-ALU)
Tool  10    : (T-TOOL FACE PROFILE .060 WIDE .030 TNR)   (INSERT TPI 432B)
Tool   5    : 5/16 ENDMILL 2FL 3/8S C33814
Tool   4    : ACCUGRIND BORE  TOOL .187 SQ CARBIDE  .005 TNR
Tool   8    : PART OFF TOOL .062 X 45 DEG TB # CN004740A
%
